X: 1
T: Lord Cathcart
M: 6/8
L: 1/8
R: Jig
S: Colclough - Tutor for the Irish Union Pipes (c.1830)
Z: AK/Fiddler's Companion
K: G
D  | "G"DGB d2d | dcB "D7"A2c | "G"BGd "Am"cAe | "C"G3 "D7"F2D |
y2 | "G"DGB d2d | dcB "D7"A2c | "G"dBG "D7"cAF | A3 "G"G2 |]
d  | "D7"def "G"gdg | "C"gfe "G"d2d | "C"ecB "Am"Ace | "Em"G3 "D7"F2G |
y2 | "D7"ABc def | "G"B3 g2g | "D"fed "A7"^cde | "D"d3 "D7"def |]
y2 | "G"gdB GBd | dcB "D7"A2c | "G"BGd "Am"cAe | "C"G3 "D7"F2D |
y2 | "G"DGB d2d | dcB "D7"A2c | "G"dBG "D7"cAF | A3 "G"G2 |]
